X:8385
T:Kas a barh
C:Gwenva
M:4/4
L:1/8
K:G
dedc B3A|G2B2 d2d2|dedc B3A|G2B2 d4:|\
|:cdcB A2BG|F2G2 A3B|cdcB A2BG|B2A2 G4:|
